**kern	**kern	**dynam
*part1	*part1	*part1
*staff2	*staff1	*
*I"Piano	*	*
*clefF4	*clefG2	*
*k[]	*k[]	*
=1	=1	=1
(8AAL 8B	(8dL 8e	mp
8E'~J	8b'~J	.
8BL	8dL 8e	<
8G#X	8f	.
8B	8d 8e	.
8G#J	8fJ	.
=	=	=
8BL	8dL 8e	.
8G#XJ	8fJ	.
8BL	8dL 8e	.
8G#	8f	.
8B	8d 8e	.
8G#J)	8fJ)	.
=	=	=
(8AAL 8A	(8cL 8e	.
8E'~J	8a'~J 8cc	.
!	!LO:TX:b:i:t=rit.	!
8AL	8cL	.
8G#X	8e	.
8A	8c	.
8G#J	8eJ	.
=	=	=
8GGL 8A	8cL	.
8E'~J	8a'~J 8cc	.
8AL	8cL	.
8E	8e	.
8A	8c	.
8EJ)	8eJ)	.
=	=	=
(8FF#XL 8A	(8cL	.
8E'~J	8a'~J 8cc	.
8AL	8cL	.
8E	8e	.
8A	8c	.
8EJ	8eJ	.
=	=	=
8FFnL 8A	8cL	[ ff
8E-X'~J	8a'~J 8cc	.
8AL	8cL	mf >
8E-	8e-X	.
8A	8c	.
8E-J)	8e-J)	.
=	=	=
(8EEnL 8En	(8AL 8c 8en	.
8D#XJ	8aJ	.
8EL	8AL 8c 8e	.
8D#	8f	.
8E	8A 8c 8e	.
8D#J	8fJ	.
=	=	=
*-	*-	*-
!!!system-decoration: {(s1,s2)}
